X: 1830
T: Sûzidil Sazsemâîsi
C: Abdülhalim Ağa
O: Turkey
F: http://compmusic.upf.edu/node/140
N: suzidil--sazsemaisi--aksaksemai----abdulhalim_aga
N: makam= suzidil
N: form= sazsemaisi
N: usul= aksaksemai = 10/8
M: 10/8
L: 1/16
K: C ^1/4f ^g ^d 
Q: 1/4=144
%%MIDI tuningsystem comma53
e4 f2e2 d2e2 f2e4f2  | g4 aba2 g2f2 g2e4d2  | \
w:  1. HANE  |   | 
e4 f2g4a4ag f2g2  | 
w:   | 
a4 b2c'2 b2a2 g2a4z2  | e4 f2e2 d2e2 f2e4f2  | \
w:   |   | 
g4 abg3efe fge4z2  | 
w:   | 
agab agf4gf gagf e4  | e2f2 e2d3ef2 g2e4z2  | 
w:   |   | 
e4 f2e2 d2e2 f2e4f2  | g4 aba2 g2f2 g2e4d2  | \
w:  1. HANE  |   | 
e4 f2g4a4ag f2g2  | 
w:   | 
a4 b2c'2 b2a2 g2a4z2  | e4 f2e2 d2e2 f2e4f2  | \
w:   |   | 
g4 abg3efe fge4z2  | 
w:   | 
agab agf4gf gagf e4  | e2f2 e2d3ef2 g2e4z2  | 
w:   |   | 
e4 =g2f2 e2d4f2 e2d2  | e6d2 c2B2 A2G4F2  | \
w:  MÜLÂZİME  |   | 
E4 F2G2 ABA2 G2F2 E2G2  | 
w:   | 
E2F2 E2D3EF2 G2E4z2  | e4 =g2f2 e2d4f2 e2d2  | \
w:   |  MÜLÂZİME  | 
e6d2 c2B2 A2G4F2  | 
w:   | 
E4 F2G2 ABA2 G2F2 E2G2  | E2F2 E2D3EF2 G2E4z2  | \
w:   |   | 
E4 F2G4A4B4A2  | 
w:  2. HANE  | 
BAGA G2A4B4c4=d2  | B4 c2d4e4f4g2  | \
w:   |   | 
gfef e2f4ga g2a4z2  | 
w:   | 
b2a2 g2a2 b2c'2 b2c'b a4  | b2c'2 =d'2c'2 b2a2 g2f4e2  | \
w:   |   | 
E4 F2G4A4B4A2  | 
w:  2. HANE  | 
BAGA G2A4B4c4=d2  | B4 c2d4e4f4g2  | \
w:   |   | 
gfef e2f4ga g2a4z2  | 
w:   | 
b2a2 g2a2 b2c'2 b2c'b a4  | b2c'2 =d'2c'2 b2ba gab4z2  | 
w:   |   | 
e4 =g2f2 e2d4f2 e2d2  | e6d2 c2B2 A2G4F2  | \
w:  MÜLÂZİME  |   | 
E4 F2G2 ABA2 G2F2 E2G2  | 
w:   | 
E2F2 E2D3EF2 G2E4z2  | e4 =g2f2 e2d4f2 e2d2  | \
w:   |  MÜLÂZİME  | 
e6d2 c2B2 A2G4F2  | 
w:   | 
E4 F2G2 ABA2 G2F2 E2G2  | E2F2 E2D3EF2 G2E4z2  | \
w:   |   | 
b4 a2bc' baba bc'a4g2  | 
w:  3. HANE  | 
a4 g2ab agag abg4f2  | g4 f2gf gag2 f2e4g2  | 
w:   |   | 
e2f2 e2d3ef2 g2e4b2  | b4 a2bc' baba bc'a4g2  | 
w:   |  3. HANE  | 
a4 g2ab agag abg4f2  | g4 f2gf gag2 f2e4g2  | 
w:   |   | 
e2f2 e2d3ef2 g2e4z2  | e4 =g2f2 e2d4f2 e2d2  | \
w:   |  MÜLÂZİME  | 
e6d2 c2B2 A2G4F2  | 
w:   | 
E4 F2G2 ABA2 G2F2 E2G2  | E2F2 E2D3EF2 G2E4z2  | \
w:   |   | 
e4 =g2f2 e2d4f2 e2d2  | 
w:  MÜLÂZİME  | 
e6d2 c2B2 A2G4F2  | E4 F2G2 ABA2 G2F2 E2G2  | \
w:   |   | 
E2F2 E2D3EF2 G2E4z2  | 
w:   | 
|


